!!!!SEGMENT: pl-kk--kk-i-7--066_asola-giovanni-matteo--sancti-mei.krn
!!!id: 16xx:905
!!!COM: Asola, Giovanni Matteo
!!!COM-rism: pe20000387
!!!CDT: <=1532-1609/10/01
!!!CNT: Italian
!!!OTL: Sancti mei
!!!PDT:
!!!SMS-siglum: PL-Kk
!!!SMS-shelfmark: Kk.I.7
!!!NIFC-rismID: 300258143
!!!URL-scan: http://repozytorium.nifc.pl/skany/pl-kk-nut--i-7
!!!ONB-nifc: UWAGA: C (skan 0062, s. 6-7), A (0148, s. 6-7 ), T (0225, s.6-7 ), B (0312, s.6-7 ). Następny utwór: O rex gloriae
!!!SMS-variant:
!!!SMS-altvar:
**kern	**text	**kern	**text	**kern	**text	**kern	**text
*part4	*part4	*part3	*part3	*part2	*part2	*part1	*part1
*staff4	*staff4	*staff3	*staff3	*staff2	*staff2	*staff1	*staff1
*I"BASSVS.	*	*I"TENOR.	*	*I"ALTVS.	*	*I"CANTVS.	*
*I'B	*	*I'T	*	*I'A	*	*I'S	*
*clefF4	*	*clefC4	*	*clefC4	*	*clefC3	*
*k[b-]	*	*k[b-]	*	*k[b-]	*	*k[b-]	*
*F:	*	*F:	*	*F:	*	*F:	*
*M2/1	*	*M2/1	*	*M2/1	*	*M2/1	*
*met(C|)	*	*met(C|)	*	*met(C|)	*	*met(C|)	*
=1-	=1-	=1-	=1-	=1-	=1-	=1-	=1-
*all\right	*	*all\right	*	*all\right	*	*all\right	*
!LO:TX:t=P:problem:przed kluczem inicjał S	!	!	!	!	!	!LO:TX:t=P:problem:kreska pseudotaktowa	!
!LO:TX:t=P:problem:znaki [B- BB-]	!	!LO:TX:t=P:problem:przed kluczem inicjał S	!	!LO:TX:t=P:problem:przed kluczem inicjał S	!	!LO:TX:t=P:problem:przed kluczem inicjał S	!
!LO:TX:t=P:problem:kreska pseudotaktowa	!	!	!	!	!	!	!
00r	.	1G	San-	00r	.	1r	.
!	!	!LO:TX:t=P:problem:kreska pseudotaktowa	!	!	!	!	!
.	.	1B-	-cti	.	.	1d	San-
=2-	=2-	=2-	=2-	=2-	=2-	=2-	=2-
!	!	!	!	!	!	!LO:TX:t=P:problem:kreska pseudotaktowa	!
.	.	1A	me-	.	.	1f	-cti
.	.	2.G/	.	.	.	1e	me-
.	.	4A/	.	.	.	.	.
=3-	=3-	=3-	=3-	=3-	=3-	=3-	=3-
*	*	*2\right	*	*	*	*2\right	*
!	!	!	!	!LO:TX:t=P:problem:kreska pseudotaktowa	!	!	!
1D	San-	2B-\	-i	0r	.	2d\	-i
*	*	*	*ij	*	*	*	*ij
.	.	1A	San-	.	.	1f	San-
1F	-cti	.	.	.	.	.	.
!	!	!	!	!	!	!LO:TX:t=P:problem:kreska pseudotaktowa	!
.	.	1d\	-cti-	.	.	2d\	-cti
=4-	=4-	=4-	=4-	=4-	=4-	=4-	=4-
1E	me-	.	.	1G	San-	4e\	me-
.	.	.	.	.	.	4f\	.
!	!	!LO:TX:t=P:problem:kreska pseudotaktowa	!	!	!	!	!
.	.	2c\	-me-	.	.	4g\	.
.	.	.	.	.	.	4e\	.
!LO:TX:t=P:problem:kreska pseudotaktowa	!	!	!	!	!	!	!
1D	-i	2d\	-i	1B-	-cti	2.f\	.
.	.	1d\	San-	.	.	.	.
.	.	.	.	.	.	8e\L	.
!	!	!	!	!	!	!LO:TX:t=P:problem:kreska pseudotaktowa	!
.	.	.	.	.	.	8d\J	.
=5-	=5-	=5-	=5-	=5-	=5-	=5-	=5-
!LO:TX:t=P:problem:kreska pseudotaktowa	!	!	!	!LO:TX:t=P:problem:kreska pseudotaktowa	!	!	!
1r	.	.	.	1A	me-	2e\	.
!	!	!LO:TX:t=P:problem:kreska pseudotaktowa	!	!	!	!	!
.	.	2c\	-cti	.	.	2f\	.
*	*ij	*	*	*	*	*	*
1GG	San-	2.B-\	me-	2G/	-i	1g	.
*	*	*	*	*	*ij	*	*
.	.	.	.	1d\	San-	.	.
.	.	8A/L	.	.	.	.	.
!	!	!LO:TX:t=P:problem:kreska pseudotaktowa	!	!	!	!	!
.	.	8G/J	.	.	.	.	.
=6-	=6-	=6-	=6-	=6-	=6-	=6-	=6-
!LO:TX:t=P:problem:kreska pseudotaktowa	!	!	!	!	!	!LO:TX:t=P:problem:kreska pseudotaktowa	!
1BB-	-cti	2F/	.	.	.	1d	-i
*	*	*	*	*2\right	*	*	*Xij
!	!	!	!	!LO:TX:t=P:problem:kreska pseudotaktowa	!	!	!
.	.	1G	.	2B-\	-cti	.	.
1AA	me-	.	.	1.c	me-	1r	.
.	.	2F/	.	.	.	.	.
=7-	=7-	=7-	=7-	=7-	=7-	=7-	=7-
!LO:TX:t=P:problem:kreska pseudotaktowa	!	!LO:TX:t=P:problem:kreska pseudotaktowa	!	!	!	!	!
1GG	-i	1G	-i	.	.	1.d	San-
*	*Xij	*	*Xij	*	*	*	*
.	.	.	.	2B-\	.	.	.
!LO:TX:t=P:problem:kreska pseudotaktowa	!	!	!	!	!	!	!
1r	.	00r	.	1A	.	.	.
!	!	!	!	!	!	!LO:TX:t=P:problem:kreska pseudotaktowa	!
.	.	.	.	.	.	2c/	-cti
=8-	=8-	=8-	=8-	=8-	=8-	=8-	=8-
!	!	!	!	!LO:TX:t=P:problem:kreska pseudotaktowa	!	!	!
1G	San-	.	.	1G	-i	2.B-/	me-
*	*	*	*	*	*Xij	*	*
.	.	.	.	.	.	4c/	.
!LO:TX:t=P:problem:kreska pseudotaktowa	!	!	!	!	!	!	!
!LO:SIC:v:t=custos A	!	!	!	!	!	!	!
1B-	-cti	.	.	2r	.	4d\	.
.	.	.	.	.	.	4e\	.
.	.	.	.	1d\	San-	4f\	.
!	!	!	!	!	!	!LO:TX:t=P:problem:kreska pseudotaktowa	!
.	.	.	.	.	.	4d\	.
!LO:LB:g=original	!	!	!	!	!	!	!
=9-	=9-	=9-	=9-	=9-	=9-	=9-	=9-
1A	me-	.	.	.	.	2e\	.
!	!	!	!	!LO:TX:t=P:problem:kreska pseudotaktowa	!	!	!
.	.	.	.	2c\	-cti	2f\	.
*2\right	*	*	*	*	*	*	*
!	!	!	!	!	!	!LO:TX:t=P:problem:kreska pseudotaktowa	!
2.G\	.	2rG	.	2.B-\	me-	1g	-i
.	.	1G/	qui	.	.	.	.
4F\	.	.	.	4A/	.	.	.
=10-	=10-	=10-	=10-	=10-	=10-	=10-	=10-
1E	.	.	.	4G/	.	1r	.
.	.	.	.	4F/	.	.	.
!	!	!LO:TX:t=P:problem:kreska pseudotaktowa	!	!	!	!	!
.	.	2G/	in	1G	.	.	.
!LO:TX:t=P:problem:kreska pseudotaktowa	!	!	!	!	!	!	!
1D	-i	2A/	car-	.	.	2r	.
!	!	!	!	!LO:TX:t=P:problem:kreska pseudotaktowa	!	!	!
.	.	2A/	-ne	2F/	.	1d\	qui
=11-	=11-	=11-	=11-	=11-	=11-	=11-	=11-
0r	.	2.B-\	po-	2.G/	.	.	.
!	!	!	!	!	!	!LO:TX:t=P:problem:kreska pseudotaktowa	!
!	!	!	!	!	!	!LO:SIC:v:t=custos e	!
.	.	.	.	.	.	2d\	in
!	!	!LO:TX:t=P:problem:kreska pseudotaktowa	!	!	!	!	!
.	.	4A/	.	4F/	.	.	.
!	!	!	!	!	!	!LO:LB:g=original	!
.	.	2G/	.	1E	.	2e\	car-
!	!	!	!	!	!	!LO:TX:t=P:problem:kreska pseudotaktowa	!
.	.	2G/	-si-	.	.	2e\	-ne
=12-	=12-	=12-	=12-	=12-	=12-	=12-	=12-
!	!	!	!	!LO:TX:t=P:problem:kreska pseudotaktowa	!	!	!
2r	.	2A/	-ti	1D	-i	2.f\	po-
!	!	!LO:TX:t=P:problem:kreska pseudotaktowa	!	!	!	!	!
!	!	!LO:SIC:v:t=custos A	!	!	!	!	!
1D	qui	2F/	in	.	.	.	.
.	.	.	.	.	.	4e\	.
!	!	!LO:LB:g=original	!	!	!	!	!
.	.	2A/	car-	0r	.	4d\	.
.	.	.	.	.	.	4c/	.
!LO:TX:t=P:problem:kreska pseudotaktowa	!	!	!	!	!	!	!
2D/	in	2A/	-ne	.	.	1d\	.
=13-	=13-	=13-	=13-	=13-	=13-	=13-	=13-
2E\	car-	2G/	po-	.	.	.	.
!	!	!	!	!	!	!LO:TX:t=P:problem:kreska pseudotaktowa	!
2E\	-ne	2G/	-ſi-	.	.	2c/	-si-
!	!	!LO:TX:t=P:problem:kreska pseudotaktowa	!	!LO:TX:t=P:problem:kreska pseudotaktowa	!	!	!
2.F\	po-	1D	-ti	1r	.	2d\	-ti
*	*	*	*	*	*	*	*ij
.	.	.	.	.	.	1f\	qui-
8E\L	.	.	.	.	.	.	.
!LO:TX:t=P:problem:kreska pseudotaktowa	!	!	!	!	!	!	!
8D\J	.	.	.	.	.	.	.
=14-	=14-	=14-	=14-	=14-	=14-	=14-	=14-
1.C	.	1r	.	2rG	.	.	.
.	.	.	.	1G	qui	4e\	.
!	!	!	!	!	!	!LO:TX:t=P:problem:kreska pseudotaktowa	!
.	.	.	.	.	.	4d\	.
.	.	2r	.	.	.	2e\	-in
!	!	!	!	!LO:TX:t=P:problem:kreska pseudotaktowa	!	!	!
2BB-/	.	1G/	qui	2G/	in	2d\	.
=15-	=15-	=15-	=15-	=15-	=15-	=15-	=15-
2.AA/	.	.	.	2A/	car-	2.c/	car-
!	!	!LO:TX:t=P:problem:kreska pseudotaktowa	!	!LO:TX:t=P:problem:kreska pseudotaktowa	!	!	!
!	!	!	!	!LO:SIC:v:t=custos B	!	!	!
.	.	2F/	in	2A/	-ne	.	.
!	!	!	!	!	!	!LO:TX:t=P:problem:kreska pseudotaktowa	!
4AA/	-si-	.	.	.	.	4d\	.
!	!	!	!	!LO:LB:g=original	!	!	!
!LO:TX:t=P:problem:kreska pseudotaktowa	!	!	!	!	!	!	!
1GG	-ti	2.G/	car-	2.B-\	po-	2e\	.
.	.	.	.	.	.	2d\	-ne
!	!	!	!	!LO:TX:t=P:problem:kreska pseudotaktowa	!	!	!
.	.	4D/	-ne	4A/	.	.	.
=16-	=16-	=16-	=16-	=16-	=16-	=16-	=16-
1rD	.	2.E-X/	po-	4G/	.	4c/	po-
.	.	.	.	4F/	.	4B-/	.
.	.	.	.	1G	.	4A/	.
!	!	!LO:TX:t=P:problem:kreska pseudotaktowa	!	!	!	!LO:TX:t=P:problem:kreska pseudotaktowa	!
.	.	4E-/	-ſi-	.	.	4G/	.
2rC	.	2D/	-ti	.	.	2.A/	.
!LO:TX:t=P:problem:kreska pseudotaktowa	!	!	!	!LO:TX:t=P:problem:kreska pseudotaktowa	!	!	!
2D/	cer-	2d\	cer-	2F/	-si-	.	.
.	.	.	.	.	.	4A/	-si-
=17-	=17-	=17-	=17-	=17-	=17-	=17-	=17-
!	!	!	!	!	!	!LO:TX:t=P:problem:kreska pseudotaktowa	!
2E-X\	-ta-	2B-\	-ta-	1G	-ti	1G	-ti
*	*	*	*	*	*	*	*Xij
!LO:TX:t=P:problem:kreska pseudotaktowa	!	!LO:TX:t=P:problem:kreska pseudotaktowa	!	!	!	!	!
2C/	-men	2c\	-m(en)	.	.	.	.
2D/	ha-	2A/	ha-	2r	.	0rA	.
!	!	!	!	!LO:TX:t=P:problem:kreska pseudotaktowa	!	!	!
2BB-/	-bu-	2B-\	-bu-	2d\	cer-	.	.
=18-	=18-	=18-	=18-	=18-	=18-	=18-	=18-
1C	-i-	1G	-i-	2e-X\	-ta-	.	.
.	.	.	.	2c\	-m(en)	.	.
!LO:TX:t=P:problem:kreska pseudotaktowa	!	!LO:TX:t=P:problem:kreska pseudotaktowa	!	!	!	!	!
1GG	-ſtis	1G	-ſtis	2d\	ha-	2rA	.
!	!	!	!	!LO:TX:t=P:problem:kreska pseudotaktowa	!	!LO:TX:t=P:problem:kreska pseudotaktowa	!
.	.	.	.	2B-\	-bu-	2d\	cer-
=19-	=19-	=19-	=19-	=19-	=19-	=19-	=19-
0r	.	2rG	.	1c	-i-	2e-X\	-ta-
!	!	!	!	!	!	!LO:TX:t=P:problem:kreska pseudotaktowa	!
.	.	2A/	cer-	.	.	2c/	-m(en)
.	.	2B-\	-ta-	2G/	-ſtis	2d\	ha-
*	*	*	*	*	*ij	*	*
!	!	!LO:TX:t=P:problem:kreska pseudotaktowa	!	!LO:TX:t=P:problem:kreska pseudotaktowa	!	!	!
.	.	2G/	-m(en)	2d\	cer-	2B-/	-bu-
=20-	=20-	=20-	=20-	=20-	=20-	=20-	=20-
!LO:TX:t=P:problem:kreska pseudotaktowa	!	!	!	!	!	!LO:TX:t=P:problem:kreska pseudotaktowa	!
1r	.	2A/	ha-	2c\	-ta-	1c	-i-
.	.	2F/	-bu-	2A/	.	.	.
2r	.	1G	-i-	2.B-\	-m(en)	2G/	-ſtis
*	*ij	*	*	*	*	*	*ij
!LO:TX:t=P:problem:kreska pseudotaktowa	!	!	!	!	!	!LO:SIC:v:t=custos f	!
2G\	cer-	.	.	.	.	2g\	cer-
!	!	!	!	!LO:TX:t=P:problem:kreska pseudotaktowa	!	!	!
.	.	.	.	4c\	.	.	.
!	!	!	!	!	!	!LO:LB:g=original	!
=21-	=21-	=21-	=21-	=21-	=21-	=21-	=21-
!	!	!LO:TX:t=P:problem:kreska pseudotaktowa	!	!	!	!	!
2A\	-ta-	1D	-ſtis	2d\	ha-	2f\	-ta-
2F\	-men	.	.	2A/	-bu-	1d	-m(en)
2G\	ha-	2r	.	2B-\	-i-	.	.
*	*	*	*ij	*	*	*	*
!LO:TX:t=P:problem:kreska pseudotaktowa	!	!	!	!LO:TX:t=P:problem:kreska pseudotaktowa:między nutą a kropką	!	!LO:TX:t=P:problem:kreska pseudotaktowa	!
2Eny\	-bu-	2G/	cer-	2.c\	.	2eny\	ha-
=22-	=22-	=22-	=22-	=22-	=22-	=22-	=22-
!LO:TX:t=P:problem:kreska pseudotaktowa	!	!	!	!	!	!	!
!LO:SIC:v:t=custos C	!	!	!	!	!	!	!
1F	-i-	2.A/	-ta-	.	.	2c/	-bu-
.	.	.	.	4B-\	.	.	.
.	.	.	.	2A/	.	1f	-i-
.	.	4B-\	.	.	.	.	.
!LO:LB:g=original	!	!	!	!	!	!	!
!LO:TX:t=P:problem:kreska pseudotaktowa	!	!	!	!	!	!	!
1C	-ſtis	2c\	.	2G/	-ſtis	.	.
*	*	*	*	*	*Xij	*	*
!	!	!LO:TX:t=P:problem:kreska pseudotaktowa	!	!	!	!	!
!	!	!LO:SIC:v:t=custos F	!	!	!	!	!
.	.	2c\	-m(en)	1A\	Cer-	2e\	.
!	!	!LO:LB:g=original	!	!	!	!	!
=23-	=23-	=23-	=23-	=23-	=23-	=23-	=23-
!	!	!	!	!	!	!LO:TX:t=P:problem:kreska pseudotaktowa	!
2r	.	1F	ha-	.	.	1f	-ſtis
*	*	*	*	*	*	*	*Xij
2D/	cer-	.	.	1B-	-ta-	.	.
2E-X\	-ta-	2G/	-bu-	.	.	1r	.
!LO:TX:t=P:problem:kreska pseudotaktowa	!	!	!	!	!	!	!
*	*	*lig	*	*	*	*	*
!	!	!	!	!LO:TX:t=P:problem:kreska pseudotaktowa	!	!	!
2C/	-men	1A\	-i-	2c\	-m(en)	.	.
=24-	=24-	=24-	=24-	=24-	=24-	=24-	=24-
2D/	ha-	.	.	2A/	ha-	2r	.
*	*	*col	*	*	*	*	*
2BB-/	-bu-	2.G/	.	2B-\	-bu-	2d\	cer-
!	!	!	!	!LO:TX:t=P:problem:kreska pseudotaktowa	!	!	!
1C	-i-	.	.	1G	-i-	2e\	-ta-
*	*	*Xlig	*	*	*	*	*
.	.	4F/	.	.	.	.	.
*	*	*Xcol	*	*	*	*	*
!	!	!LO:TX:t=P:problem:kreska pseudotaktowa	!	!	!	!LO:TX:t=P:problem:kreska pseudotaktowa	!
.	.	2Eny/	.	.	.	2c/	-m(en)
=25-	=25-	=25-	=25-	=25-	=25-	=25-	=25-
!	!	!	!	!LO:SIC:v:t=custos d	!	!	!
2GG,/	-ſtis	2D/	-ſtis	2G/	-ſtis	2d\	ha-
*	*	*	*Xij	*	*	*	*
!	!	!	!	!LO:PB:g=original	!	!	!
*	*	*	*	*	*ij	*	*
!LO:TX:t=P:problem:kreska pseudotaktowa	!	!	!	!	!	!	!
2GG/	cer-	4r	.	2d\	Cer-	2B-/	-bu-
!	!	!LO:TX:t=P:problem:kreska pseudotaktowa	!	!	!	!	!
.	.	4G/	cer-	.	.	.	.
2C/	-ta-	2G/	-ta-	2e-X\	-ta-	1c	-i-
!	!	!LO:TX:t=P:problem:kreska pseudotaktowa	!	!LO:TX:t=P:problem:kreska pseudotaktowa	!	!	!
2AA/	-men	2F/	-m(en)	2c\	-m(en)	.	.
=26-	=26-	=26-	=26-	=26-	=26-	=26-	=26-
!	!	!	!	!	!	!LO:TX:t=P:problem:kreska pseudotaktowa	!
2BB-/	ha-	2D/	ha-	2d\	ha-	1G	-ſtis
!LO:TX:t=P:problem:kreska pseudotaktowa	!	!	!	!	!	!	!
2GG/	-bu-	2D/	-bu-	2B-\	-bu-	.	.
2.AA/	-i-	2.C/	-i-	1c	-i-	2r	.
*	*	*	*	*	*	*	*ij
.	.	.	.	.	.	2c/	cer-
!	!	!LO:SIC:v:s=4E	!	!	!	!	!
4BB-/	.	4C/	.	.	.	.	.
=27-	=27-	=27-	=27-	=27-	=27-	=27-	=27-
!	!	!LO:TX:t=P:problem:kreska pseudotaktowa	!	!LO:TX:t=P:problem:kreska pseudotaktowa	!	!	!
1C	.	1E-X	.	1G	-ſtis	2c/	-ta-
!	!	!	!	!	!	!LO:TX:t=P:problem:kreska pseudotaktowa	!
.	.	.	.	.	.	2G/	-m(en)
!LO:TX:t=P:problem:kreska pseudotaktowa	!	!	!	!	!	!	!
1GG	-ſtis	2D/	-ſtis	2r	.	2B-/	ha-
*	*Xij	*	*ij	*	*	*	*
.	.	2G/	cer-	2d\	Cer-	2B-/	-bu-
=28-	=28-	=28-	=28-	=28-	=28-	=28-	=28-
!	!	!	!	!LO:TX:t=P:problem:kreska pseudotaktowa	!	!LO:TX:t=P:problem:kreska pseudotaktowa	!
2rC	.	2G/	-ta-	1d	-ta-	1A	-i-
!	!	!LO:TX:t=P:problem:kreska pseudotaktowa	!	!	!	!	!
2D/	cer-	2F/	-m(en)	.	.	.	.
2E-X\	-ta-	2G/	ha-	2B-\	-m(en)	2G/	-ſtis
!LO:TX:t=P:problem:kreska pseudotaktowa	!	!	!	!LO:SIC:v:s=2e-	!	!	!
2C/	-men	2c\	.	2eny\	ha-	2g\	cer-
=29-	=29-	=29-	=29-	=29-	=29-	=29-	=29-
!	!	!	!	!LO:TX:t=P:problem:kreska pseudotaktowa	!	!	!
2D/	ha-	4A/	.	1d	-bu-	2f\	-ta-
.	.	8G/L	.	.	.	.	.
.	.	8A/J	.	.	.	.	.
!	!	!	!	!	!	!LO:TX:t=P:problem:kreska pseudotaktowa	!
2BB-/	-bu-	4B-\	.	.	.	2d\	-m(en)
!	!	!LO:TX:t=P:problem:kreska pseudotaktowa	!	!	!	!	!
.	.	4A/	.	.	.	.	.
*lig	*	*	*	*	*	*	*
1C	-i-	4G/	-bu-	2.c\	-i-	2e-X\	ha-
.	.	4F/	.	.	.	.	.
.	.	1G/	-i-	.	.	2e-\	-bu-
.	.	.	.	4B-\	.	.	.
=30-	=30-	=30-	=30-	=30-	=30-	=30-	=30-
!	!	!	!	!LO:TX:t=P:problem:kreska pseudotaktowa	!	!	!
1D	.	.	.	1A	.	2.d\	-i-
.	.	2F/	.	.	.	.	.
.	.	.	.	.	.	4c/	.
*Xlig	*	*	*	*	*	*	*
!LO:TX:t=P:problem:kreska pseudotaktowa	!	!LO:TX:t=P:problem:kreska pseudotaktowa	!	!	!	!	!
0GG	-ſtis	1G	-ſtis	2G/	-ſtis	4B-/	.
*	*	*	*Xij	*	*Xij	*	*
.	.	.	.	.	.	4A/	.
!	!	!	!	!	!	!LO:TX:t=P:problem:kreska pseudotaktowa	!
!	!	!	!	!	!	!LO:SIC:v:t=custos G	!
.	.	.	.	2G/	mer-	2B-/	.
!	!	!	!	!	!	!LO:PB:g=original	!
=31-	=31-	=31-	=31-	=31-	=31-	=31-	=31-
!	!	!	!	!	!	!LO:TX:t=P:problem:kreska pseudotaktowa	!
.	.	2rG	.	1d	-ce-	1G	-ſtis
*	*	*	*	*	*	*	*Xij
.	.	2D/	Mer-	.	.	.	.
!	!	!LO:TX:t=P:problem:kreska pseudotaktowa	!	!	!	!	!
2rC	.	1G	-ce-	2B-\	-dem	0rA	.
!	!	!	!	!LO:TX:t=P:problem:kreska pseudotaktowa	!	!	!
2GG/	mer-	.	.	2G/	la-	.	.
=32-	=32-	=32-	=32-	=32-	=32-	=32-	=32-
!LO:TX:t=P:problem:kreska pseudotaktowa	!	!	!	!	!	!	!
1D	-ce-	2F/	-d(em)	2.A/	-bo-	.	.
!	!	!LO:TX:t=P:problem:kreska pseudotaktowa	!	!	!	!	!
!	!	!LO:SIC:v:t=custos E	!	!	!	!	!
.	.	2D/	la-	.	.	.	.
.	.	.	.	8G/L	.	.	.
!	!	!	!	!LO:TX:t=P:problem:kreska pseudotaktowa	!	!	!
.	.	.	.	8F/J	.	.	.
!	!	!LO:LB:g=original	!	!	!	!	!
2C/	-d(em)	1Eny	-bo-	2G/	.	2rA	.
!LO:TX:t=P:problem:kreska pseudotaktowa	!	!	!	!	!	!	!
!LO:SIC:v:t=custos BB	!	!	!	!	!	!LO:TX:t=P:problem:kreska pseudotaktowa	!
2AA/	la-	.	.	1A\	.	2A/	mer-
!LO:LB:g=original	!	!	!	!	!	!	!
=33-	=33-	=33-	=33-	=33-	=33-	=33-	=33-
!	!	!LO:TX:t=P:problem:kreska pseudotaktowa	!	!	!	!	!
1BB-	-bo-	1D	-ris	.	.	1d	-ce-
.	.	.	.	2G/	.	.	.
!	!	!	!	!LO:TX:t=P:problem:kreska pseudotaktowa	!	!	!
2AA/	-ris	1r	.	1A	-ris	2c/	-dem
*	*ij	*	*	*	*	*	*
!LO:TX:t=P:problem:kreska pseudotaktowa	!	!	!	!	!	!LO:TX:t=P:problem:kreska pseudotaktowa	!
2D/	mer-	.	.	.	.	2A/	la-
=34-	=34-	=34-	=34-	=34-	=34-	=34-	=34-
1G	-ce-	2r	.	0rA	.	1B-	-bo-
*	*	*	*ij	*	*	*	*
!	!	!LO:TX:t=P:problem:kreska pseudotaktowa	!	!	!	!	!
.	.	2G/	Mer-	.	.	.	.
2F\	-d(em)	1d	-ce-	.	.	2A/	-ris
*	*	*	*	*	*	*	*ij
!LO:TX:t=P:problem:kreska pseudotaktowa	!	!	!	!	!	!LO:TX:t=P:problem:kreska pseudotaktowa	!
2D/	la-	.	.	.	.	2d\	mer-
=35-	=35-	=35-	=35-	=35-	=35-	=35-	=35-
1E-X	-bo-	2B-\	-d(em)	2rG	.	1g	-ce-
*	*	*	*	*	*ij	*	*
!	!	!LO:TX:t=P:problem:kreska pseudotaktowa	!	!LO:TX:t=P:problem:kreska pseudotaktowa	!	!	!
.	.	2c\	la-	2G/	mer-	.	.
!LO:TX:t=P:problem:kreska pseudotaktowa	!	!	!	!	!	!	!
1D	-ris	2A/	-bo-	1d	-ce-	2f\	-dem
!	!	!	!	!	!	!LO:TX:t=P:problem:kreska pseudotaktowa	!
.	.	2B-\	.	.	.	2d\	la-
=36-	=36-	=36-	=36-	=36-	=36-	=36-	=36-
!	!	!LO:TX:t=P:problem:kreska pseudotaktowa	!	!	!	!	!
*	*	*	*	*	*	*lig	*
1r	.	1A	-ris	2c\	-dem	1e-X	-bo-
!	!	!	!	!LO:TX:t=P:problem:kreska pseudotaktowa	!	!	!
.	.	.	.	2A/	la-	.	.
*	*	*	*	*	*	*col	*
2r	.	1r	.	1B-	-bo-	2.d\	.
2GG/	mer-	.	.	.	.	.	.
*	*	*	*	*	*	*Xlig	*
.	.	.	.	.	.	4e-\	.
*	*	*	*	*	*	*Xcol	*
=37-	=37-	=37-	=37-	=37-	=37-	=37-	=37-
!	!	!	!	!LO:TX:t=P:problem:kreska pseudotaktowa	!	!	!
!LO:TX:t=P:problem:kreska pseudotaktowa	!	!	!	!LO:SIC:v:t=custos A	!	!	!
1D	-ce-	2r	.	1A	-ris	1f	.
!	!	!LO:TX:t=P:problem:kreska pseudotaktowa	!	!	!	!	!
.	.	2D/	Mer-	.	.	.	.
!	!	!	!	!LO:LB:g=original	!	!LO:TX:t=P:problem:kreska pseudotaktowa	!
2C/	-d(em)	1A	-ce-	2r	.	1e-	-ris
*	*	*	*	*	*	*	*Xij
!	!	!	!	!LO:TX:t=P:problem:kreska pseudotaktowa	!	!	!
2AA/	la-	.	.	2A/	mer-	.	.
=38-	=38-	=38-	=38-	=38-	=38-	=38-	=38-
1BB-	-bo-	2F/	-d(em)	1d	-ce-	1r	.
!	!	!LO:TX:t=P:problem:kreska pseudotaktowa	!	!	!	!	!
.	.	2D/	la-	.	.	.	.
!LO:TX:t=P:problem:kreska pseudotaktowa	!	!	!	!	!	!	!
1AA	-ris	1E	-bo-	2c\	-dem	2r	.
!	!	!	!	!LO:TX:t=P:problem:kreska pseudotaktowa	!	!LO:TX:t=P:problem:kreska pseudotaktowa	!
.	.	.	.	2A/	la-	2c/	mer-
=39-	=39-	=39-	=39-	=39-	=39-	=39-	=39-
2r	.	2D/	-ris	1B-	-bo-	1d	-ce-
2GG/	mer-	1G	Mer-	.	.	.	.
!LO:TX:t=P:problem:kreska pseudotaktowa	!	!	!	!	!	!	!
1C	-ce-	.	.	2G/	-ris	2c/	-d(em)
*	*	*	*	*	*Xij	*	*
!	!	!LO:TX:t=P:problem:kreska pseudotaktowa	!	!LO:TX:t=P:problem:kreska pseudotaktowa	!	!LO:TX:t=P:problem:kreska pseudotaktowa	!
.	.	2E/	-ce-	2G/	mer-	2c/	la-
=40-	=40-	=40-	=40-	=40-	=40-	=40-	=40-
2BB-/	-d(em)	2F/	-d(em)	1B-	-ce-	2.d\	-bo-
2GG/	la-	2G/	la-	.	.	.	.
.	.	.	.	.	.	4eny\	.
*lig	*	*lig	*	*	*	*	*
1D	-bo-	1F	-bo-	2A/	-dem	2f\	.
.	.	.	.	2.B-\	la-	1d\	.
=41-	=41-	=41-	=41-	=41-	=41-	=41-	=41-
1Eny	.	1G	.	.	.	.	.
.	.	.	.	4A/	.	.	.
!	!	!	!	!	!	!LO:TX:t=P:problem:kreska pseudotaktowa	!
.	.	.	.	1G	-bo-	2c/	.
*Xlig	*	*Xlig	*	*	*	*	*
!LO:TX:t=P:problem:kreska pseudotaktowa	!	!LO:TX:t=P:problem:kreska pseudotaktowa	!	!	!	!	!
1D	-ris	1A	-ris	.	.	0d,	-ris
*	*Xij	*	*Xij	*	*	*	*
!	!	!	!	!LO:TX:t=P:problem:kreska pseudotaktowa	!	!	!
.	.	.	.	2F/	.	.	.
=42-	=42-	=42-	=42-	=42-	=42-	=42-	=42-
!	!	!LO:N:acc=#	!	!	!	!	!
0GG	e-	1.Bn	e-	1G	-ris	.	.
.	.	.	.	1d	e-	0g	e-
.	.	2B\	-go	.	.	.	.
=43-	=43-	=43-	=43-	=43-	=43-	=43-	=43-
*lig	*	*	*	*	*	*	*
!	!	!LO:TX:t=P:problem:kreska pseudotaktowa	!	!LO:TX:t=P:problem:kreska pseudotaktowa	!	!	!
1C	-go	1c	red-	1e	-go	.	.
!LO:TX:t=P:problem:kreska pseudotaktowa	!	!	!	!	!	!LO:TX:t=P:problem:kreska pseudotaktowa	!
1D	.	2A/	-d(am)	2.d\	red-	1f	-go
.	.	2.B-y\	Vo-	.	.	.	.
.	.	.	.	4c\	.	.	.
*Xlig	*	*	*	*	*	*	*
=44-	=44-	=44-	=44-	=44-	=44-	=44-	=44-
1E-X	red-	.	.	1B-	.	1.e-X	red-
.	.	4A/	.	.	.	.	.
.	.	4G/	.	.	.	.	.
!	!	!LO:TX:t=P:problem:kreska pseudotaktowa	!	!	!	!	!
!	!	!LO:SIC:v:t=custos G	!	!	!	!	!
.	.	4F/	.	.	.	.	.
!	!	!LO:PB:g=original	!	!	!	!	!
!LO:TX:t=P:problem:kreska pseudotaktowa	!	!	!	!LO:TX:t=P:problem:kreska pseudotaktowa	!	!	!
1C	-d(am)	2G/	.	1c	-dam	.	.
!	!	!	!	!	!	!LO:TX:t=P:problem:kreska pseudotaktowa	!
!	!	!	!	!	!	!LO:SIC:v:t=custos d	!
.	.	2.A/	.	.	.	2e-\	-dam
!	!	!	!	!	!	!LO:LB:g=original	!
=45-	=45-	=45-	=45-	=45-	=45-	=45-	=45-
0D	Vo-	.	.	2B-\	Vo-	0d	Vo-
.	.	4G/	.	.	.	.	.
.	.	1G	.	4A/	.	.	.
.	.	.	.	4G/	.	.	.
.	.	.	.	1A	.	.	.
.	.	2F/	.	.	.	.	.
=46-	=46-	=46-	=46-	=46-	=46-	=46-	=46-
!LO:TX:t=P:problem:kreska pseudotaktowa	!	!	!	!LO:TX:t=P:problem:kreska pseudotaktowa	!	!	!
!LO:SIC:v:t=custos C	!	!LO:TX:t=P:problem:kreska pseudotaktowa	!	!LO:N:acc=#	!	!LO:TX:t=P:problem:kreska pseudotaktowa	!
0GG	-bis	0G	-bis	0Bn	-bis	0d	-bis
!LO:LB:g=original	!	!	!	!	!	!	!
=47-	=47-	=47-	=47-	=47-	=47-	=47-	=47-
1rD	.	1rA	.	1r	.	1r	.
0C	Ve-	0G	Ve-	0c	Ve-	0eny	Ve-
=48-	=48-	=48-	=48-	=48-	=48-	=48-	=48-
.	.	.	.	.	.	.	.
!LO:TX:t=P:problem:kreska pseudotaktowa	!	!LO:TX:t=P:problem:kreska pseudotaktowa	!	!LO:TX:t=P:problem:kreska pseudotaktowa	!	!	!
1D	-ni-	1F	-ni-	1A	-ni-	1f	-ni-
=49-	=49-	=49-	=49-	=49-	=49-	=49-	=49-
!	!	!LO:TX:t=P:problem:kreska pseudotaktowa	!	!	!	!LO:TX:t=P:problem:kreska pseudotaktowa	!
1C	-te	1G	-te	1c	-te	1e	-te
1.F	be-	1.A	be-	2c\	be-	1.c	be-
.	.	.	.	2A/	-ne-	.	.
=50-	=50-	=50-	=50-	=50-	=50-	=50-	=50-
.	.	.	.	2F/	.	.	.
2Eny\	-ne-	2G/	-ne-	1c	-di-	2c/	-ne-
!	!	!LO:TX:t=P:problem:kreska pseudotaktowa	!	!	!	!	!
1D	-di-	1F	-di-	.	.	1d	-di-
!	!	!	!	!LO:TX:t=P:problem:kreska pseudotaktowa	!	!	!
.	.	.	.	2B-y\	.	.	.
=51-	=51-	=51-	=51-	=51-	=51-	=51-	=51-
!LO:TX:t=P:problem:kreska pseudotaktowa	!	!	!	!LO:SIC:v:t=custos A	!	!LO:TX:t=P:problem:kreska pseudotaktowa	!
1C	-cti	2G/	-cti	1c	-cti	1e	-cti
.	.	2.A/	Pa-	.	.	.	.
!	!	!	!	!LO:LB:g=original	!	!	!
1.D	Pa-	.	.	1.A	Pa-	2f\	pa-
.	.	4G/	.	.	.	.	.
.	.	4F/	.	.	.	2d\	.
!	!	!LO:TX:t=P:problem:kreska pseudotaktowa	!	!	!	!	!
.	.	4E/	.	.	.	.	.
=52-	=52-	=52-	=52-	=52-	=52-	=52-	=52-
.	.	2D/	.	.	.	2f\	-tris
!	!	!	!	!LO:TX:t=P:problem:kreska pseudotaktowa	!	!	!
2AA/	-tris	2C/	-tris	2A/	-tris	2.e\	me-
*	*	*lig	*	*	*	*	*
1BB-	me-	1D	me-	2F/	me-	.	.
.	.	.	.	.	.	4d\	.
.	.	.	.	2G/	.	1d\	.
=53-	=53-	=53-	=53-	=53-	=53-	=53-	=53-
!LO:TX:t=P:problem:kreska pseudotaktowa	!	!	!	!LO:TX:t=P:problem:kreska pseudotaktowa	!	!	!
1AA	-i,	1E	.	1A	-i	.	.
.	.	.	.	.	.	2c/	.
*	*	*Xlig	*	*	*	*	*
!	!	!LO:TX:t=P:problem:kreska pseudotaktowa	!	!	!	!LO:TX:t=P:problem:kreska pseudotaktowa	!
2rC	.	1D	-i	2rF	.	1d	-i
2D/	per-	.	.	2F/	per-	.	.
=54-	=54-	=54-	=54-	=54-	=54-	=54-	=54-
2D/	-ci-	0rA	.	2F/	-ci-	1r	.
!	!	!	!	!LO:TX:t=P:problem:kreska pseudotaktowa	!	!	!
2C/	-pi-	.	.	2G/	-pi-	.	.
!LO:TX:t=P:problem:kreska pseudotaktowa	!	!	!	!	!	!	!
1F	-te	.	.	1A	-te	2r	.
.	.	.	.	.	.	2d\	per-
=55-	=55-	=55-	=55-	=55-	=55-	=55-	=55-
1E	re-	2rG	.	2.G/	re-	2d\	-ci-
!	!	!	!	!	!	!LO:TX:t=P:problem:kreska pseudotaktowa	!
.	.	2G/	per-	.	.	2c/	-pi-
!	!	!	!	!LO:TX:t=P:problem:kreska pseudotaktowa	!	!	!
.	.	.	.	4A/	.	.	.
!LO:TX:t=P:problem:kreska pseudotaktowa	!	!	!	!	!	!	!
1D	-gn(um)	2F/	-ci-	4B-y\	.	1f	-te
.	.	.	.	4A/	.	.	.
!	!	!LO:TX:t=P:problem:kreska pseudotaktowa	!	!	!	!	!
.	.	2D/	-pi-	1d\	.	.	.
=56-	=56-	=56-	=56-	=56-	=56-	=56-	=56-
!	!	!	!	!	!	!LO:TX:t=P:problem:kreska pseudotaktowa	!
1rD	.	1A	-te	.	.	1e	re-
!	!	!	!	!LO:TX:t=P:problem:kreska pseudotaktowa	!	!	!
.	.	.	.	2c\	.	.	.
!	!	!LO:TX:t=P:problem:kreska pseudotaktowa	!	!LO:TX:t=P:problem:kreska pseudotaktowa	!	!	!
2rC	.	1B-	re-	1d	-gn(um)	2d\	-gn(um)
*	*ij	*	*	*	*	*	*ij
2GG/	per-	.	.	.	.	2g\	per-
=57-	=57-	=57-	=57-	=57-	=57-	=57-	=57-
!LO:TX:t=P:problem:kreska pseudotaktowa	!	!	!	!	!	!	!
1D	-ci-	2A/	-gn(um)	2r	.	2f\	-ci-
*	*	*	*ij	*	*ij	*	*
!	!	!	!	!LO:TX:t=P:problem:kreska pseudotaktowa	!	!LO:TX:t=P:problem:kreska pseudotaktowa	!
.	.	2F/	per-	2A/	per-	2d\	-pi-
2C/	-pi-	2G/	-ci-	1c	-ci-	2e\	-te
!	!	!LO:TX:t=P:problem:kreska pseudotaktowa	!	!	!	!	!
!	!	!LO:SIC:v:t=custos D	!	!	!	!	!
2AA/	-te	2A/	-pi-	.	.	2.f\	re-
!	!	!LO:LB:g=original	!	!	!	!	!
=58-	=58-	=58-	=58-	=58-	=58-	=58-	=58-
*lig	*	*	*	*	*	*	*
1BB-	re-	1D	-te	2F/	-pi-	.	.
!	!	!	!	!	!	!LO:SIC:v:t=custos d	!
.	.	.	.	.	.	4e\	.
!	!	!	!	!	!	!LO:LB:g=original	!
!	!	!	!	!LO:TX:t=P:problem:kreska pseudotaktowa	!	!	!
.	.	.	.	2G/	-te	1d	.
1AA	.	1E	re-	1A	re-	.	.
.	.	.	.	.	.	2c/	.
*Xlig	*	*	*	*	*	*	*
=59-	=59-	=59-	=59-	=59-	=59-	=59-	=59-
!LO:TX:t=P:problem:kreska pseudotaktowa	!	!LO:TX:t=P:problem:kreska pseudotaktowa	!	!	!	!LO:TX:t=P:problem:kreska pseudotaktowa	!
0D	-gn(um)	1D	-gn(um)	2A/	-gn(um)	1d	-gn(um)
*	*Xij	*	*Xij	*	*Xij	*	*Xij
!	!	!	!	!LO:TX:t=P:problem:kreska pseudotaktowa	!	!	!
.	.	.	.	2A/	mer-	.	.
.	.	2rG	.	1d	-ce-	0r	.
.	.	2D/	mer-	.	.	.	.
=60-	=60-	=60-	=60-	=60-	=60-	=60-	=60-
2rC	.	1G	-ce-	2B-\	-dem	.	.
!	!	!	!	!LO:TX:t=P:problem:kreska pseudotaktowa	!	!	!
2GG/	Mer-	.	.	2G/	la-	.	.
!LO:TX:t=P:problem:kreska pseudotaktowa	!	!	!	!	!	!	!
!LO:SIC:v:t=custos C	!	!	!	!	!	!	!
1D	-ce-	2F/	-dem	2.A/	-bo-	1r	.
!	!	!LO:TX:t=P:problem:kreska pseudotaktowa	!	!	!	!	!
.	.	2D/	la-	.	.	.	.
.	.	.	.	8G/L	.	.	.
!	!	!	!	!LO:TX:t=P:problem:kreska pseudotaktowa	!	!	!
.	.	.	.	8F/J	.	.	.
!LO:PB:g=original	!	!	!	!	!	!	!
=61-	=61-	=61-	=61-	=61-	=61-	=61-	=61-
2C/	-dem	1E	-bo-	2G/	.	2r	.
!	!	!	!	!	!	!LO:TX:t=P:problem:kreska pseudotaktowa	!
2AA/	la-	.	.	1A	.	2A/	mer-
!LO:TX:t=P:problem:kreska pseudotaktowa	!	!LO:TX:t=P:problem:kreska pseudotaktowa	!	!	!	!	!
1BB-	-bo-	1D	-ris	.	.	1d	-ce-
!	!	!	!	!LO:TX:t=P:problem:kreska pseudotaktowa	!	!	!
.	.	.	.	2G/	.	.	.
=62-	=62-	=62-	=62-	=62-	=62-	=62-	=62-
!	!	!	!	!LO:TX:t=P:problem:kreska pseudotaktowa	!	!	!
!	!	!	!	!LO:SIC:v:t=custos G	!	!	!
2AA/	-ris	1rA	.	1A	-ris	2c/	-dem
*	*ij	*	*	*	*	*	*
2D/	Mer-	.	.	.	.	2A/	la-
!	!	!	!	!LO:LB:g=original	!	!LO:TX:t=P:problem:kreska pseudotaktowa	!
1G	-ce-	2rG	.	0r	.	1B-	-bo-
*	*	*	*ij	*	*	*	*
!	!	!LO:TX:t=P:problem:kreska pseudotaktowa	!	!	!	!	!
.	.	2G/	mer-	.	.	.	.
=63-	=63-	=63-	=63-	=63-	=63-	=63-	=63-
2F\	-dem	1d	-ce-	.	.	2A,/	-ris
*	*	*	*	*	*	*	*ij
!LO:TX:t=P:problem:kreska pseudotaktowa	!	!	!	!	!	!LO:TX:t=P:problem:kreska pseudotaktowa	!
2D/	la-	.	.	.	.	2d\	mer-
1E-X	-bo-	2B-\	-dem	2r	.	1g	-ce-
*	*	*	*	*	*ij	*	*
!	!	!LO:TX:t=P:problem:kreska pseudotaktowa	!	!LO:TX:t=P:problem:kreska pseudotaktowa	!	!	!
.	.	2c\	la-	2G/	mer-	.	.
=64-	=64-	=64-	=64-	=64-	=64-	=64-	=64-
!LO:TX:t=P:problem:kreska pseudotaktowa	!	!	!	!	!	!	!
1D	-ris	2A/	-bo-	1d	-ce-	2f\	-dem
.	.	2B-\	.	.	.	2d\	la-
!	!	!LO:TX:t=P:problem:kreska pseudotaktowa	!	!	!	!	!
*	*	*	*	*	*	*lig	*
1r	.	1A	-ris	2c\	-dem	1e	-bo-
!	!	!	!	!LO:TX:t=P:problem:kreska pseudotaktowa	!	!	!
.	.	.	.	2A/	la-	.	.
=65-	=65-	=65-	=65-	=65-	=65-	=65-	=65-
*	*	*	*	*	*	*col	*
2r	.	1r	.	1B-	-bo-	2.d\	.
2GG/	Mer-	.	.	.	.	.	.
*	*	*	*	*	*	*Xlig	*
.	.	.	.	.	.	4e\	.
*	*	*	*	*	*	*Xcol	*
!LO:TX:t=P:problem:kreska pseudotaktowa	!	!	!	!LO:TX:t=P:problem:kreska pseudotaktowa	!	!	!
1D	-ce-	2r	.	1A	-ris	1f	.
.	.	2D/	mer-	.	.	.	.
=66-	=66-	=66-	=66-	=66-	=66-	=66-	=66-
!	!	!	!	!	!	!LO:TX:t=P:problem:kreska pseudotaktowa	!
2C/	-dem	1A	-ce-	2r	.	1e	-ris
*	*	*	*	*	*	*	*Xij
2AA/	la-	.	.	2A/	mer-	.	.
1BB-	-bo-	2F/	-dem	1d	-ce-	1r	.
.	.	2D/	la-	.	.	.	.
=67-	=67-	=67-	=67-	=67-	=67-	=67-	=67-
!LO:TX:t=P:problem:kreska pseudotaktowa	!	!LO:TX:t=P:problem:kreska pseudotaktowa	!	!	!	!	!
1AA	-ris	1E	-bo-	2c\	-dem	2r	.
*	*Xij	*	*	*	*	*	*
!	!	!	!	!LO:TX:t=P:problem:kreska pseudotaktowa	!	!LO:TX:t=P:problem:kreska pseudotaktowa	!
.	.	.	.	2A/	la-	2c/	mer-
2r	.	2D/	.	1B-	-bo-	1d	-ce-
2GG/	Mer-	1G/	.	.	.	.	.
=68-	=68-	=68-	=68-	=68-	=68-	=68-	=68-
1C	-ce-	.	.	2G,/	-ris	2c/	-dem
*	*	*	*	*	*Xij	*	*
!	!	!	!	!LO:TX:t=P:problem:kreska pseudotaktowa	!	!LO:TX:t=P:problem:kreska pseudotaktowa	!
.	.	2E/	.	2G/	Mer-	2c/	la-
2BB-/	-dem	2F/	.	1B-	-ce-	2.d\	-bo-
!LO:TX:t=P:problem:kreska pseudotaktowa	!	!LO:TX:t=P:problem:kreska pseudotaktowa	!	!	!	!	!
2GG/	la-	2G/	.	.	.	.	.
.	.	.	.	.	.	4e\	.
=69-	=69-	=69-	=69-	=69-	=69-	=69-	=69-
*lig	*	*lig	*	*	*	*	*
1D	-bo-	1F	.	2A/	-dem	2f\	.
.	.	.	.	2.B-\	la-	1d	.
1Eny	.	1G	.	.	.	.	.
.	.	.	.	4A/	.	.	.
!	!	!	!	!	!	!LO:TX:t=P:problem:kreska pseudotaktowa	!
.	.	.	.	1G/	.	2c/	.
*Xlig	*	*Xlig	*	*	*	*	*
=70-	=70-	=70-	=70-	=70-	=70-	=70-	=70-
!	!	!LO:TX:t=P:problem:kreska pseudotaktowa	!	!	!	!	!
1D	.	1A	-ris	.	.	0d	-ris
*	*	*	*Xij	*	*	*	*
!	!	!	!	!LO:TX:t=P:problem:kreska pseudotaktowa	!	!	!
.	.	.	.	2F/	.	.	.
!LO:TX:t=P:problem:kreska pseudotaktowa	!	!LO:N:acc=#	!	!LO:TX:t=P:problem:kreska pseudotaktowa	!	!	!
1GG	-ris	1Bn	e-	1G	-bo-	.	.
=71-	=71-	=71-	=71-	=71-	=71-	=71-	=71-
*lig	*	*	*	*	*	*	*
!	!	!LO:TX:t=P:problem:kreska pseudotaktowa	!	!	!	!LO:TX:t=P:problem:kreska pseudotaktowa	!
1C	e-	1c	-go	1G	-ris	1e	e-
!	!	!	!	!LO:TX:t=P:problem:kreska pseudotaktowa	!	!	!
1D	.	1A	red-	1d	e-	1f	-go
*Xlig	*	*	*	*	*	*	*
=72-	=72-	=72-	=72-	=72-	=72-	=72-	=72-
!LO:TX:t=P:problem:kreska pseudotaktowa	!	!	!	!	!	!	!
1E-X	-go	2.G/	.	1B-	-go	1.e-X	red-
!	!	!LO:SIC:v:t=custos G	!	!	!	!	!
.	.	4F/	.	.	.	.	.
!LO:TX:t=P:problem:kreska pseudotaktowa	!	!LO:LB:g=original	!	!LO:TX:t=P:problem:kreska pseudotaktowa	!	!	!
1C	red-	2G/	.	1c	red-	.	.
!	!	!	!	!	!	!LO:TX:t=P:problem:kreska pseudotaktowa	!
.	.	2.A/	-dam-	.	.	2e-\	-d(am)
=73-	=73-	=73-	=73-	=73-	=73-	=73-	=73-
!	!	!	!	!	!	!LO:TX:t=P:problem:takt wykreślony	!
0D	-d(am)	.	.	2B-\	-d(am)	0d	Vo-
.	.	4G/	.	.	.	.	.
.	.	1G	-Vo-	4A/	.	.	.
!	!	!	!	!LO:TX:t=P:problem:kreska pseudotaktowa	!	!	!
.	.	.	.	4G/	.	.	.
!	!	!	!	!LO:TX:t=P:problem:takt wykreślony	!	!	!
.	.	.	.	1A	Vo-	.	.
!	!	!LO:TX:t=P:problem:takt wykreślony	!	!	!	!	!
.	.	2F#X/	.	.	.	.	.
=74-	=74-	=74-	=74-	=74-	=74-	=74-	=74-
!LO:N:vis=0	!	!	!	!	!	!	!
!LO:TX:t=P:problem:♭above	!	!	!	!	!	!	!
1E-X;;	Vo-	2F#X/	.	2A\	.	0d	.
.	.	1G	.	2B-X\	.	.	.
!LO:N:vis=0	!	!	!	!	!	!	!
1D	.	.	.	1A	.	.	.
.	.	2F#/	.	.	.	.	.
=75-	=75-	=75-	=75-	=75-	=75-	=75-	=75-
0GGl	-bis.	0Gl;	-bis.	0Bnl;	-bis.	0dl;	-bis.
==	==	==	==	==	==	==	==
*-	*-	*-	*-	*-	*-	*-	*-
!!!system-decoration: [s1,s2,s3,s4]
!!!RDF**kern: l = terminal long
!!!ENC: Marta Lawrence
!!!END: 2021-03-18
!!!ENC: Andrzej Borzym
!!!END: 2021-03-03
